priv/static/svgs/icons_new/sport-overwatch.svg

<svg width="32" height="32" viewBox="0 0 32 32" fill="none" xmlns="http://www.w3.org/2000/svg">
<path d="M10.1478 8.51601C11.7608 7.25294 13.7925 6.5 16 6.5C18.2075 6.5 20.2392 7.25294 21.8522 8.51601M8.15349 10.6428C7.11021 12.1679 6.5 14.0127 6.5 16C6.5 21.2467 10.7533 25.5 16 25.5C21.2467 25.5 25.5 21.2467 25.5 16C25.5 14.0127 24.8898 12.1679 23.8465 10.6428M9.75347 22.7314L14.6953 17.6446C15.0817 17.2467 15.2979 16.714 15.2979 16.1593V11.7926M22.5949 22.7314L17.7282 17.6422C17.3489 17.2456 17.1372 16.7179 17.1372 16.1691V11.7926" stroke="black" stroke-linecap="round"/>
</svg>

<svg width="32" height="32" viewBox="0 0 32 32" fill="none" xmlns="http://www.w3.org/2000/svg">
  <symbol id="item" viewBox="0 0 32 32" stroke-width="1" fill="none">
    <path d="M10.148 8.516A9.46 9.46 0 0 1 16 6.5a9.46 9.46 0 0 1 5.852 2.016M8.153 10.643A9.456 9.456 0 0 0 6.5 16a9.5 9.5 0 0 0 19 0c0-1.987-.61-3.832-1.654-5.357M9.753 22.73l4.942-5.086c.387-.398.603-.931.603-1.486v-4.366m7.297 10.938-4.867-5.089a2.131 2.131 0 0 1-.59-1.473v-4.376" stroke="currentColor" stroke-linecap="round"/>
  </symbol>
</svg>
